src/assets/images/twitter.svg

<?xml version="1.0" encoding="UTF-8" standalone="no"?>
<svg width="30px" height="30px" viewBox="0 0 30 30" version="1.1" xmlns="http://www.w3.org/2000/svg" xmlns:xlink="http://www.w3.org/1999/xlink">
    <!-- Generator: Sketch 3.8.3 (29802) - http://www.bohemiancoding.com/sketch -->
    <title>twitter</title>
    <desc>Created with Sketch.</desc>
    <defs>
        <polygon id="path-1" points="14.966562 24.9078475 29.9331022 24.9078475 29.9331022 0 14.966562 0 2.18978102e-05 0 2.18978102e-05 24.9078475 14.966562 24.9078475"></polygon>
    </defs>
    <g id="Page-1" stroke="none" stroke-width="1" fill="none" fill-rule="evenodd">
        <g id="twitter" transform="translate(0.000000, 3.000000)">
            <mask id="mask-2" fill="white">
                <use xlink:href="#path-1"></use>
            </mask>
            <g id="Clip-2"></g>
            <path d="M29.9331241,2.9485426 C28.8317737,3.44865471 27.6484161,3.7867713 26.4059343,3.93867713 C27.6740365,3.16053812 28.6477226,1.92813901 29.1061533,0.459865471 C27.9197299,1.18049327 26.6054234,1.70369955 25.2064818,1.98576233 C24.0864088,0.76367713 22.4901679,0 20.7241095,0 C17.3322482,0 14.5826496,2.81547085 14.5826496,6.28789238 C14.5826496,6.7808296 14.6369562,7.26065022 14.7416277,7.72085202 C9.63779562,7.45863229 5.11272263,4.95526906 2.08381752,1.15100897 C1.55520438,2.07970852 1.25235766,3.15986547 1.25235766,4.31221973 C1.25235766,6.49372197 2.33662774,8.41838565 3.98432847,9.54607623 C2.97768613,9.51345291 2.03082482,9.23049327 1.20275912,8.75952915 C1.20232117,8.78576233 1.20221168,8.81210762 1.20221168,8.83856502 C1.20221168,11.8852018 3.31907299,14.4266816 6.12845255,15.0042601 C5.61308759,15.14787 5.07056934,15.2247758 4.51053285,15.2247758 C4.11483942,15.2247758 3.73009489,15.1853139 3.35509489,15.1119955 C4.13662774,17.6100897 6.40458394,19.428139 9.09188321,19.4789238 C6.99013139,21.1653587 4.34213869,22.1706278 1.4649854,22.1706278 C0.969218978,22.1706278 0.480459854,22.1408072 2.18978102e-05,22.0828475 C2.71775912,23.8669283 5.94582482,24.9078475 9.41378102,24.9078475 C20.7097664,24.9078475 26.8867007,15.3263453 26.8867007,7.01704036 C26.8867007,6.74439462 26.8806788,6.47320628 26.8689635,6.20358744 C28.068635,5.31704036 29.1097664,4.20952915 29.9331241,2.9485426" id="Fill-1" fill="#5FA9DD" mask="url(#mask-2)"></path>
        </g>
    </g>
</svg>

<svg viewBox="0 0 30 30" xmlns="http://www.w3.org/2000/svg" xmlns:xlink="http://www.w3.org/1999/xlink"><defs><path id="a" d="M14.967 24.908h14.966V0H0v24.908h14.967z"/></defs><g transform="translate(0 3)" fill="none" fill-rule="evenodd"><mask id="b" fill="#fff"><use xlink:href="#a"/></mask><path d="M29.933 2.949a12.05 12.05 0 01-3.527.99 6.282 6.282 0 002.7-3.48c-1.186.721-2.5 1.245-3.9 1.527A6.067 6.067 0 0020.724 0c-3.392 0-6.141 2.815-6.141 6.288 0 .493.054.973.159 1.433-5.104-.262-9.63-2.766-12.658-6.57a6.373 6.373 0 00-.832 3.161 6.326 6.326 0 002.732 5.234 6.008 6.008 0 01-2.781-.786v.079c0 3.046 2.116 5.588 4.925 6.165a6.019 6.019 0 01-2.773.108c.782 2.498 3.05 4.316 5.737 4.367A12.14 12.14 0 010 22.083a17.089 17.089 0 009.414 2.825c11.296 0 17.473-9.582 17.473-17.891 0-.273-.006-.544-.018-.813 1.2-.887 2.24-1.994 3.064-3.255" fill="#5FA9DD" mask="url(#b)"/></g></svg>
